X:1
T:[ID 1-113a]
T:[ID 1-113a]
T:Bezeichnung standardisiert: Menuett Men\"uet
T:Urheber unbekannt Datum in der hier transkribierten schriftlichen Quelle: vermutlich vor 1767
C:Urheber unbekannt
C:Datum in der hier transkribierten schriftlichen Quelle: vermutlich vor 1767
L:1/8
M:none
K:D
V:1 treble 
V:1
 d2 D2 d2 | d2 cB A2 | B2 G2 B2 | B2 AG F2 | e2 AG A2 | e2 AG A2 | Bd c2 B2 | A6 :: AB A2 a2 | %9
 a2 gf g2 | AB A2 g2 | g2 fe f2 |"^O)" A/B/c d2 D2 | F2 EF D2 |"^O)" A/B/c d2 D2 | F2 EF D2 | %16
 EG F2 E2 | D6 :| %18

